X: 8031
T: Connie Flemming's
R: polka
M: 2/4
K: Gmajor
|:B/A/|G2 G>A|Bd eg|B2 B/c/B/A/|GE ED|
G/A/G/F/ G>A|B/c/d ed|eg ag/f/|g2 g:|
|:B/d/|g>a bb/a/|gf ed|B/c/B/A/ B>A|GF ED|
[1 g>a b>a|gf/g/ ed|B/c/B/A/ Bd|g2 g:|
[2 G>F G>A|B/c/d ed|e/f/g aa/f/|g2- g||

